<?xml version="1.0" encoding="UTF-8"?>
<map version="1.10" tiledversion="1.11.0" orientation="orthogonal" renderorder="right-down" width="30" height="20" tilewidth="16" tileheight="16" infinite="0" nextlayerid="2" nextobjectid="1">
 <tileset firstgid="1" name="Terrain (16x16)" tilewidth="16" tileheight="16" spacing="1" margin="1" tilecount="200" columns="20">
  <image source="../../Pixel Adventure 1/Free/Terrain/Terrain (16x16).png" width="352" height="176"/>
 </tileset>
 <layer id="1" name="Tile Layer 1" width="30" height="20">
  <data encoding="csv">
188,188,188,188,188,188,188,187,187,187,187,187,187,187,187,187,187,187,187,187,187,187,187,187,187,187,187,187,187,187,
188,188,188,188,188,188,188,187,187,187,187,187,187,187,187,187,187,187,187,187,187,187,187,187,187,187,187,187,187,187,
188,188,188,188,188,188,188,188,187,187,187,187,187,187,187,187,187,187,187,187,187,187,187,187,187,187,187,187,187,187,
187,187,188,188,188,188,187,187,187,187,187,187,187,187,187,187,187,187,187,187,187,187,187,187,187,187,187,187,187,187,
187,187,188,188,188,188,188,188,187,187,187,187,187,187,187,187,187,187,187,187,187,187,187,187,187,187,187,187,187,187,
187,187,187,188,188,188,188,188,187,187,187,187,187,187,187,187,187,187,187,187,187,187,187,187,187,187,187,187,187,187,
188,188,188,188,188,188,188,188,188,188,188,188,188,188,187,187,187,187,187,187,187,187,187,187,187,187,187,187,187,187,
188,188,188,188,188,188,188,188,188,188,188,188,188,188,187,187,187,187,187,187,187,187,187,187,187,187,187,187,187,187,
188,188,188,188,188,188,188,188,188,188,188,188,188,188,188,187,187,187,187,187,187,187,187,187,187,187,187,187,187,187,
187,187,188,188,188,188,188,187,187,187,188,188,188,188,188,187,187,187,187,187,187,187,187,187,187,187,187,187,187,187,
188,188,188,188,188,188,188,188,188,188,188,188,188,188,188,187,187,187,187,187,187,187,187,187,187,187,187,187,187,187,
188,188,188,188,188,188,188,188,188,188,188,188,188,188,188,187,187,187,187,187,187,187,187,187,187,187,187,187,187,187,
188,188,188,188,188,188,188,188,188,188,188,188,188,188,188,187,187,187,187,187,187,187,187,187,187,187,187,187,187,187,
187,187,187,187,187,187,187,187,187,187,187,187,187,187,187,187,187,187,187,187,187,187,187,187,187,187,187,187,187,187,
1,2,3,187,187,187,187,187,187,187,187,187,187,187,187,187,187,187,187,187,187,187,187,187,187,187,187,1,2,3,
21,84,23,187,187,187,187,187,187,187,187,187,187,187,187,187,187,187,187,187,187,187,187,187,187,187,187,21,84,23,
41,42,43,187,187,187,187,187,187,187,187,187,187,187,187,187,187,187,187,187,187,187,187,187,187,187,187,41,42,43,
1,2,3,187,187,187,187,187,187,187,187,187,187,187,187,187,187,187,187,187,187,187,187,187,187,187,187,1,2,3,
7,8,7,8,7,8,7,8,7,8,7,8,7,8,7,8,7,8,7,8,7,8,7,8,7,8,7,8,7,8,
27,28,27,28,27,28,27,28,27,28,27,28,27,28,27,28,27,28,27,28,27,28,27,28,27,28,27,28,27,28
</data>
 </layer>
</map>
